svgs/thin/toilets-portable.svg

<svg xmlns="http://www.w3.org/2000/svg" viewBox="0 0 576 512"><!--! Font Awesome Pro 6.6.0 by @fontawesome - https://fontawesome.com License - https://fontawesome.com/license (Commercial License) Copyright 2024 Fonticons, Inc. --><path d="M56 16l144 0c22.1 0 40 17.9 40 40l0 40L16 96l0-40c0-22.1 17.9-40 40-40zm184 96l0 336L16 448l0-336 224 0zM16 504l0-40 224 0 0 40c0 4.4 3.6 8 8 8s8-3.6 8-8l0-448c0-30.9-25.1-56-56-56L56 0C25.1 0 0 25.1 0 56L0 504c0 4.4 3.6 8 8 8s8-3.6 8-8zM176 240l0 64c0 13.3 10.7 24 24 24l16 0c4.4 0 8-3.6 8-8s-3.6-8-8-8l-16 0c-4.4 0-8-3.6-8-8l0-64c0-4.4 3.6-8 8-8l16 0c4.4 0 8-3.6 8-8s-3.6-8-8-8l-16 0c-13.3 0-24 10.7-24 24zM376 16l144 0c22.1 0 40 17.9 40 40l0 40L336 96l0-40c0-22.1 17.9-40 40-40zm184 96l0 336-224 0 0-336 224 0zM336 504l0-40 224 0 0 40c0 4.4 3.6 8 8 8s8-3.6 8-8l0-448c0-30.9-25.1-56-56-56L376 0c-30.9 0-56 25.1-56 56l0 448c0 4.4 3.6 8 8 8s8-3.6 8-8zM496 240l0 64c0 13.3 10.7 24 24 24l16 0c4.4 0 8-3.6 8-8s-3.6-8-8-8l-16 0c-4.4 0-8-3.6-8-8l0-64c0-4.4 3.6-8 8-8l16 0c4.4 0 8-3.6 8-8s-3.6-8-8-8l-16 0c-13.3 0-24 10.7-24 24z"/></svg>

<svg xmlns="http://www.w3.org/2000/svg" viewBox="0 0 576 512"><!--! Font Awesome Pro 6.4.2 by @fontawesome - https://fontawesome.com License - https://fontawesome.com/license (Commercial License) Copyright 2023 Fonticons, Inc. --><path d="M56 16H200c22.1 0 40 17.9 40 40V96H16V56c0-22.1 17.9-40 40-40zm184 96V448H16V112H240zM16 504V464H240v40c0 4.4 3.6 8 8 8s8-3.6 8-8V56c0-30.9-25.1-56-56-56H56C25.1 0 0 25.1 0 56V504c0 4.4 3.6 8 8 8s8-3.6 8-8zM176 240v64c0 13.3 10.7 24 24 24h16c4.4 0 8-3.6 8-8s-3.6-8-8-8H200c-4.4 0-8-3.6-8-8V240c0-4.4 3.6-8 8-8h16c4.4 0 8-3.6 8-8s-3.6-8-8-8H200c-13.3 0-24 10.7-24 24zM376 16H520c22.1 0 40 17.9 40 40V96H336V56c0-22.1 17.9-40 40-40zm184 96V448H336V112H560zM336 504V464H560v40c0 4.4 3.6 8 8 8s8-3.6 8-8V56c0-30.9-25.1-56-56-56H376c-30.9 0-56 25.1-56 56V504c0 4.4 3.6 8 8 8s8-3.6 8-8zM496 240v64c0 13.3 10.7 24 24 24h16c4.4 0 8-3.6 8-8s-3.6-8-8-8H520c-4.4 0-8-3.6-8-8V240c0-4.4 3.6-8 8-8h16c4.4 0 8-3.6 8-8s-3.6-8-8-8H520c-13.3 0-24 10.7-24 24z"/></svg>
